X:1
T:Title
%%score { ( 1 2 6 ) | ( 3 4 5 ) }
L:1/8
Q:1/4=100
M:2/4
K:Ab
V:1 treble nm="Grand Piano"
V:2 treble 
V:6 treble 
V:3 bass 
V:4 bass 
V:5 bass 
V:1
 z2 .G2 | [DG]2 [DG]2 | .d2 z2 | [CE]4 | .[E,CE]2[K:treble] GF | [DA]2 [DG]2 | Bc .[DAB]2 | %7
 .A2 z2 | z2 .G2 | [DG]2 [DG]2 | .d2 z2 | [CE]4 | [F=Ace][Ace] [FAd][Ac] | [DFc]2 [B,DFB]2 | %14
 FA GE | [A,CA]4 | [EG]A .[B,DGB]c | [Bd]2 [G,DG]2 | [CA]B [Ac]f | [ce]4 | [EG]A [GB]c | [Bd]2 G2 | %22
 AB c=d | [Ge]4 | .[E,CE]2 [CG]F | [DG]2 [DG]2 | .[E,DE]2 [D=A][FB] | z2 .A2 | [Acf]e [FBd][Ac] | %29
 cB FA | %30
 z2 c2[Q:1/4=98][Q:1/4=96][Q:1/4=94][Q:1/4=92][Q:1/4=90][Q:1/4=88][Q:1/4=85][Q:1/4=83][Q:1/4=81][Q:1/4=79][Q:1/4=77] | %31
 [CA]4 |] %32
V:2
 .[E,CE]2 C-[CF] | x4 | D-[DF] .[DG]2 | E,2 E,2 | z2[K:treble] C2 | x4 | x4 | [DB]2- [DFB]2 | %8
 .[E,CE]2 C-[CF] | x4 | D-[DF] .[DG]2 | E,2 _G,2 | x4 | x4 | D2 z2 | x4 | x4 | x4 | x4 | x4 | x4 | %21
 x4 | x4 | x4 | x4 | x4 | x4 | [=Ec]4 | F2 z2 | [DF]2 z2 | .[DG]2 .D>B | x4 |] %32
V:3
 z A [E,,E,]2 | [B,,E,]2 [E,,E,]2 | [B,,E,]2 z F | A,,2 E,,2 | z A [E,,E,]2 | [B,,E,]2 [E,,E,]2 | %6
 [F,A,D]2 z[K:treble] c | z G[K:bass] z =E | z A [E,,E,]2 | [B,,E,]2 [E,,E,]2 | [B,,E,]2 z F | %11
 A,,2 _G,,2 | z F z E | z2 F,2 | z2 .B,2 | A,,4 | .E,,[K:treble]F .E,A | .E,,2 E,2 | %18
 .A,,E .[E,A,C][K:treble]d | A,,C, E,A, | .E,,[K:treble]F z A | .E,,2 [B,D]2 | %22
 [F,A,C][G,DE] [A,CE][B,A] | B,4 | z A [E,,E,]2 | [B,,E,]2 [E,,E,]2 | %26
 z[K:treble] B[K:bass] [E,,E,][D,,D,] | z[K:treble] B[K:bass] z G | z[K:treble] c[K:bass] z E | %29
 z2 [F,B,D]2 | .E,,E [B,,F,A,][E,G,] | [A,,E,A,]4 |] %32
V:4
 A,,2 z2 | x4 | z2 [E,,E,]2 | x4 | A,,2 z2 | x4 | z2 [B,,F,]2[K:treble] | E,2[K:bass] E,,2 | %8
 A,,2 z2 | x4 | z2 [E,,E,]2 | x4 | z2 F,2 | B,,4 | B,,2 [E,D]-[E,G,D] | x4 | x[K:treble] x3 | x4 | %18
 x3[K:treble] x | x4 | z2[K:treble] [E,B,D]2 | x4 | x4 | E,D, C,B,, | A,,2 z2 | x4 | %26
 G,,2[K:treble][K:bass] z2 | z2[K:treble][K:bass] C,2 | z2[K:treble][K:bass] F,2 | B,,4 | x4 | %31
 x4 |] %32
V:5
 x4 | x4 | x4 | x4 | x4 | x4 | x3[K:treble] x | x2[K:bass] x2 | x4 | x4 | x4 | x4 | F,,4 | x4 | %14
 x4 | x4 | x[K:treble] x3 | x4 | x3[K:treble] x | x4 | x[K:treble] x3 | x4 | x4 | x4 | x4 | x4 | %26
 x[K:treble] x[K:bass] x2 | C,,4[K:treble][K:bass] | F,,4[K:treble][K:bass] | x4 | x4 | x4 |] %32
V:6
 x4 | x4 | x4 | x4 | x2[K:treble] x2 | x4 | x4 | x4 | x4 | x4 | x4 | x4 | x4 | x4 | x4 | x4 | x4 | %17
 x4 | x4 | x4 | x4 | x4 | x4 | x4 | x4 | x4 | x4 | x4 | x4 | x4 | z2 z D | x4 |] %32

